X: 16235
T: Greenwood Side
R: polka
M: 2/4
K: Bminor
|:f|BB/c/ BA|B/c/d/e/ f2|e>f e/f/e/d/|cA Af|
BB/c/ BA|B/c/d/e/ f2|ea fe/f/|dB B:|
|:d/e/|fB df|BB/d/ f2|e>f e/f/e/d/|cA Ad/e/|
fB df|BB/d/ f2|ea fe/f/|dB B:|

